packages/katcn/src/icons/svg/folder-solid.svg

<svg width="24" height="25" viewBox="0 0 24 25" fill="none" xmlns="http://www.w3.org/2000/svg">
<path d="M12.8629 5.98809L11.2386 4.38809C10.5279 3.68809 9.61421 3.28809 8.70051 3.28809H4.74112C3.21827 3.28809 2 4.48809 2 5.98809V18.4881C2 20.0881 3.21827 21.2881 4.74112 21.2881H19.2589C20.7817 21.2881 22 20.0881 22 18.5881V8.78809C22 7.28809 20.7817 6.08809 19.2589 6.08809H12.8629V5.98809Z" fill="black"/>
</svg>

<svg xmlns="http://www.w3.org/2000/svg" fill="none" viewBox="0 0 24 25"><path fill="#000" d="m12.863 5.988-1.624-1.6c-.711-.7-1.625-1.1-2.538-1.1H4.74c-1.522 0-2.74 1.2-2.74 2.7v12.5c0 1.6 1.218 2.8 2.741 2.8H19.26c1.523 0 2.741-1.2 2.741-2.7v-9.8c0-1.5-1.218-2.7-2.741-2.7h-6.396z"/></svg>
